mmm/img/mm_white.svg

<?xml version="1.0" encoding="UTF-8" standalone="no"?>
<!DOCTYPE svg PUBLIC "-//W3C//DTD SVG 1.1//EN" "http://www.w3.org/Graphics/SVG/1.1/DTD/svg11.dtd">
<svg width="100%" height="100%" viewBox="0 0 1961 1028" version="1.1" xmlns="http://www.w3.org/2000/svg" xmlns:xlink="http://www.w3.org/1999/xlink" xml:space="preserve" xmlns:serif="http://www.serif.com/" style="fill-rule:evenodd;clip-rule:evenodd;stroke-linejoin:round;stroke-miterlimit:2;">
    <g transform="matrix(1.41634,0,0,1.41634,413.965,-0.102579)">
        <path d="M593.72,381.11L789.6,489.47L681.68,489.47L555.63,418.74L240.04,418.74L113.99,489.47L6.07,489.47L201.95,381.11L593.72,381.11Z" style="fill:rgb(237,34,36);fill-rule:nonzero;"/>
    </g>
    <g transform="matrix(1.41634,0,0,1.41634,413.965,-0.102579)">
        <path d="M221.96,292.91L96.47,366.37L6.01,366.37L201.9,256.41L593.72,256.41L789.6,366.37L699.14,366.37L573.65,292.91L221.96,292.91Z" style="fill:rgb(237,34,36);fill-rule:nonzero;"/>
    </g>
    <g transform="matrix(1.41634,0,0,1.41634,413.965,-0.102579)">
        <path d="M593.72,155.01L789.6,256.41L719.54,256.41L577.22,182.96L218.39,182.96L76.07,256.41L6.01,256.41L201.9,155.01L593.72,155.01Z" style="fill:rgb(237,34,36);fill-rule:nonzero;"/>
    </g>
    <g transform="matrix(1.41634,0,0,1.41634,413.965,-0.102579)">
        <path d="M201.9,70.06L6.01,156.6L67.68,156.6L218.39,89.78L577.22,89.78L727.93,156.6L789.6,156.6L593.72,70.06L201.9,70.06Z" style="fill:rgb(237,34,36);fill-rule:nonzero;"/>
    </g>
    <g transform="matrix(1.41634,0,0,1.41634,413.965,-0.102579)">
        <path d="M201.9,0L6.01,73.17L52.72,73.17L218.39,11.33L577.22,11.33L742.9,73.17L789.6,73.17L593.72,0L201.9,0Z" style="fill:rgb(237,34,36);fill-rule:nonzero;"/>
    </g>
    <g transform="matrix(1.41634,0,0,1.41634,69.1727,-0.102579)">
        <path d="M31.27,623.12L54.9,692.58L55.18,692.58L77.53,623.12L108.8,623.12L108.8,724.12L88,724.12L88,652.54L87.72,652.54L63,724.12L45.84,724.12L21.08,653.25L20.8,653.25L20.8,724.12L0,724.12L0,623.12L31.27,623.12Z" style="fill:white;fill-rule:nonzero;"/>
    </g>
    <g transform="matrix(1.41634,0,0,1.41634,413.965,-0.102579)">
        <path d="M142.88,651L142.88,660.9L143.16,660.9C145.63,657.284 148.897,654.283 152.71,652.13C156.637,650.006 161.047,648.935 165.51,649.02C169.877,648.967 174.202,649.886 178.17,651.71C181.99,653.503 184.89,656.663 186.87,661.19C189.225,657.803 192.23,654.917 195.71,652.7C199.67,650.167 204.3,648.878 209,649C212.631,648.969 216.249,649.443 219.75,650.41C222.883,651.266 225.784,652.814 228.24,654.94C230.704,657.173 232.598,659.964 233.76,663.08C235.176,666.95 235.854,671.051 235.76,675.17L235.76,724.12L215.6,724.12L215.6,682.67C215.6,680.217 215.507,677.907 215.32,675.74C215.185,673.768 214.654,671.843 213.76,670.08C212.905,668.472 211.602,667.145 210.01,666.26C207.928,665.223 205.614,664.737 203.29,664.85C200.896,664.743 198.52,665.308 196.43,666.48C194.724,667.525 193.313,668.988 192.33,670.73C191.301,672.569 190.623,674.583 190.33,676.67C189.997,678.894 189.829,681.141 189.83,683.39L189.83,724.13L169.76,724.13L169.76,683.13C169.76,680.963 169.713,678.82 169.62,676.7C169.548,674.69 169.143,672.707 168.42,670.83C167.726,669.055 166.486,667.545 164.88,666.52C163.227,665.433 160.8,664.89 157.6,664.89C156.328,664.941 155.069,665.153 153.85,665.52C152.19,665.998 150.647,666.815 149.32,667.92C147.697,669.311 146.414,671.056 145.57,673.02C144.428,675.773 143.896,678.741 144.01,681.72L144.01,724.16L123.93,724.16L123.93,651L142.88,651Z" style="fill:white;fill-rule:nonzero;"/>
    </g>
    <g transform="matrix(1.41634,0,0,1.41634,239.021,-0.102579)">
        <path d="M142.88,651L142.88,660.9L143.16,660.9C145.63,657.284 148.897,654.283 152.71,652.13C156.637,650.006 161.047,648.935 165.51,649.02C169.877,648.967 174.202,649.886 178.17,651.71C181.99,653.503 184.89,656.663 186.87,661.19C189.225,657.803 192.23,654.917 195.71,652.7C199.67,650.167 204.3,648.878 209,649C212.631,648.969 216.249,649.443 219.75,650.41C222.883,651.266 225.784,652.814 228.24,654.94C230.704,657.173 232.598,659.964 233.76,663.08C235.176,666.95 235.854,671.051 235.76,675.17L235.76,724.12L215.6,724.12L215.6,682.67C215.6,680.217 215.507,677.907 215.32,675.74C215.185,673.768 214.654,671.843 213.76,670.08C212.905,668.472 211.602,667.145 210.01,666.26C207.928,665.223 205.614,664.737 203.29,664.85C200.896,664.743 198.52,665.308 196.43,666.48C194.724,667.525 193.313,668.988 192.33,670.73C191.301,672.569 190.623,674.583 190.33,676.67C189.997,678.894 189.829,681.141 189.83,683.39L189.83,724.13L169.76,724.13L169.76,683.13C169.76,680.963 169.713,678.82 169.62,676.7C169.548,674.69 169.143,672.707 168.42,670.83C167.726,669.055 166.486,667.545 164.88,666.52C163.227,665.433 160.8,664.89 157.6,664.89C156.328,664.941 155.069,665.153 153.85,665.52C152.19,665.998 150.647,666.815 149.32,667.92C147.697,669.311 146.414,671.056 145.57,673.02C144.428,675.773 143.896,678.741 144.01,681.72L144.01,724.16L123.93,724.16L123.93,651L142.88,651Z" style="fill:white;fill-rule:nonzero;"/>
    </g>
    <g transform="matrix(1.41634,0,0,1.41634,413.965,-0.102579)">
        <path d="M298.22,724.12L298.22,713.94L297.8,713.94C295.516,717.944 292.061,721.155 287.9,723.14C284.009,725.001 279.753,725.978 275.44,726C270.935,726.148 266.443,725.428 262.21,723.88C259.01,722.648 256.201,720.575 254.08,717.88C252.003,715.069 250.578,711.831 249.91,708.4C249.07,704.321 248.664,700.164 248.7,696L248.7,651L268.79,651L268.79,692.31C268.79,698.343 269.733,702.847 271.62,705.82C273.507,708.793 276.84,710.28 281.62,710.28C287.087,710.28 291.047,708.653 293.5,705.4C295.953,702.147 297.18,696.793 297.18,689.34L297.18,651L317.27,651L317.27,724.14L298.22,724.12Z" style="fill:white;fill-rule:nonzero;"/>
    </g>
    <g transform="matrix(1.41634,0,0,1.41634,413.965,-0.102579)">
        <path d="M346.67,705.94C347.529,707.455 348.714,708.76 350.14,709.76C351.611,710.794 353.258,711.553 355,712C356.872,712.477 358.798,712.716 360.73,712.71C362.23,712.7 363.725,712.533 365.19,712.21C366.673,711.908 368.102,711.385 369.43,710.66C370.687,709.964 371.773,708.998 372.61,707.83C373.499,706.517 373.944,704.954 373.88,703.37C373.88,700.357 371.88,698.093 367.88,696.58C362.41,694.653 356.809,693.123 351.12,692C348.193,691.333 345.34,690.553 342.56,689.66C339.929,688.841 337.427,687.652 335.13,686.13C332.992,684.705 331.202,682.819 329.89,680.61C328.495,678.133 327.803,675.321 327.89,672.48C327.89,667.767 328.81,663.9 330.65,660.88C332.434,657.919 334.943,655.462 337.94,653.74C341.1,651.944 344.542,650.7 348.12,650.06C351.946,649.348 355.829,648.994 359.72,649C363.591,648.991 367.454,649.369 371.25,650.13C374.782,650.804 378.168,652.098 381.25,653.95C384.186,655.751 386.678,658.192 388.54,661.09C390.611,664.497 391.8,668.368 392,672.35L372.9,672.35C372.62,668.483 371.157,665.867 368.51,664.5C365.607,663.075 362.403,662.371 359.17,662.45C357.94,662.455 356.712,662.525 355.49,662.66C354.247,662.783 353.03,663.093 351.88,663.58C350.813,664.039 349.868,664.741 349.12,665.63C348.322,666.658 347.921,667.94 347.99,669.24C347.945,670.932 348.684,672.553 349.99,673.63C351.516,674.874 353.268,675.811 355.15,676.39C357.537,677.168 359.968,677.805 362.43,678.3C365.163,678.867 367.947,679.48 370.78,680.14C373.673,680.794 376.53,681.599 379.34,682.55C381.988,683.426 384.492,684.69 386.77,686.3C388.913,687.831 390.698,689.811 392,692.1C393.406,694.728 394.095,697.681 394,700.66C394.39,708.707 390.374,716.359 383.53,720.61C380.26,722.652 376.638,724.066 372.85,724.78C368.817,725.591 364.714,725.999 360.6,726C356.417,726.007 352.245,725.581 348.15,724.73C344.319,723.968 340.655,722.529 337.33,720.48C334.167,718.497 331.505,715.81 329.55,712.63C327.391,708.911 326.246,704.69 326.23,700.39L345.33,700.39C345.28,702.326 345.743,704.24 346.67,705.94Z" style="fill:white;fill-rule:nonzero;"/>
    </g>
    <g transform="matrix(1.41634,0,0,1.41634,413.965,-0.102579)">
        <path d="M424.4,706.58C427.42,709.5 431.753,710.96 437.4,710.96C441.116,711.072 444.777,710.023 447.87,707.96C450.79,705.96 452.58,703.813 453.24,701.52L470.92,701.52C468.093,710.293 463.76,716.567 457.92,720.34C452.08,724.113 445.01,726 436.71,726C431.395,726.078 426.114,725.141 421.15,723.24C416.706,721.521 412.696,718.84 409.41,715.39C406.134,711.871 403.612,707.719 402,703.19C400.207,698.201 399.319,692.931 399.38,687.63C399.334,682.415 400.246,677.236 402.07,672.35C405.451,663.175 412.491,655.802 421.5,652C426.309,649.961 431.487,648.94 436.71,649C442.352,648.863 447.944,650.102 453,652.61C457.499,654.91 461.399,658.228 464.39,662.3C467.413,666.464 469.6,671.174 470.83,676.17C472.162,681.484 472.642,686.976 472.25,692.44L419.45,692.44C419.737,698.94 421.387,703.653 424.4,706.58ZM447.11,668.1C444.703,665.433 441.037,664.1 436.11,664.1C433.352,664.004 430.61,664.563 428.11,665.73C426.146,666.682 424.409,668.046 423.02,669.73C421.798,671.234 420.884,672.963 420.33,674.82C419.853,676.386 419.545,677.998 419.41,679.63L452.09,679.63C451.177,674.59 449.517,670.747 447.11,668.1Z" style="fill:white;fill-rule:nonzero;"/>
    </g>
    <g transform="matrix(1.41634,0,0,1.41634,413.965,-0.102579)">
        <path d="M530.79,724.12L530.79,713.94L530.36,713.94C528.076,717.945 524.621,721.156 520.46,723.14C516.569,725.001 512.313,725.978 508,726C503.495,726.147 499.003,725.428 494.77,723.88C491.568,722.651 488.759,720.577 486.64,717.88C484.562,715.07 483.137,711.831 482.47,708.4C481.634,704.327 481.232,700.177 481.27,696.02L481.27,651L501.36,651L501.36,692.31C501.36,698.343 502.303,702.847 504.19,705.82C506.077,708.793 509.41,710.28 514.19,710.28C519.663,710.28 523.623,708.653 526.07,705.4C528.517,702.147 529.743,696.793 529.75,689.34L529.75,651L549.84,651L549.84,724.14L530.79,724.12Z" style="fill:white;fill-rule:nonzero;"/>
    </g>
    <g transform="matrix(1.41634,0,0,1.41634,413.965,-0.102579)">
        <path d="M581.86,651L581.86,660.9L582.14,660.9C584.611,657.285 587.878,654.284 591.69,652.13C595.617,650.006 600.027,648.935 604.49,649.02C608.857,648.967 613.182,649.886 617.15,651.71C620.97,653.503 623.87,656.663 625.85,661.19C628.205,657.802 631.21,654.916 634.69,652.7C638.633,650.178 643.241,648.89 647.92,649C651.551,648.969 655.17,649.443 658.67,650.41C661.803,651.266 664.704,652.815 667.16,654.94C669.624,657.173 671.517,659.965 672.68,663.08C674.096,666.95 674.774,671.051 674.68,675.17L674.68,724.12L654.57,724.12L654.57,682.67C654.57,680.217 654.477,677.907 654.29,675.74C654.153,673.768 653.623,671.844 652.73,670.08C651.874,668.472 650.572,667.146 648.98,666.26C646.898,665.223 644.584,664.738 642.26,664.85C639.866,664.744 637.49,665.308 635.4,666.48C633.695,667.526 632.284,668.988 631.3,670.73C630.271,672.569 629.593,674.583 629.3,676.67C628.971,678.895 628.808,681.141 628.81,683.39L628.81,724.13L608.74,724.13L608.74,683.13C608.74,680.963 608.693,678.82 608.6,676.7C608.53,674.69 608.124,672.706 607.4,670.83C606.706,669.055 605.466,667.545 603.86,666.52C602.207,665.433 599.777,664.89 596.57,664.89C595.298,664.941 594.039,665.153 592.82,665.52C591.16,665.998 589.618,666.815 588.29,667.92C586.669,669.314 585.387,671.058 584.54,673.02C583.402,675.774 582.873,678.742 582.99,681.72L582.99,724.16L562.9,724.16L562.9,651L581.86,651Z" style="fill:white;fill-rule:nonzero;"/>
    </g>
    <g transform="matrix(1.41634,0,0,1.41634,591.493,-0.102579)">
        <path d="M581.86,651L581.86,660.9L582.14,660.9C584.611,657.285 587.878,654.284 591.69,652.13C595.617,650.006 600.027,648.935 604.49,649.02C608.857,648.967 613.182,649.886 617.15,651.71C620.97,653.503 623.87,656.663 625.85,661.19C628.205,657.802 631.21,654.916 634.69,652.7C638.633,650.178 643.241,648.89 647.92,649C651.551,648.969 655.17,649.443 658.67,650.41C661.803,651.266 664.704,652.815 667.16,654.94C669.624,657.173 671.517,659.965 672.68,663.08C674.096,666.95 674.774,671.051 674.68,675.17L674.68,724.12L654.57,724.12L654.57,682.67C654.57,680.217 654.477,677.907 654.29,675.74C654.153,673.768 653.623,671.844 652.73,670.08C651.874,668.472 650.572,667.146 648.98,666.26C646.898,665.223 644.584,664.738 642.26,664.85C639.866,664.744 637.49,665.308 635.4,666.48C633.695,667.526 632.284,668.988 631.3,670.73C630.271,672.569 629.593,674.583 629.3,676.67C628.971,678.895 628.808,681.141 628.81,683.39L628.81,724.13L608.74,724.13L608.74,683.13C608.74,680.963 608.693,678.82 608.6,676.7C608.53,674.69 608.124,672.706 607.4,670.83C606.706,669.055 605.466,667.545 603.86,666.52C602.207,665.433 599.777,664.89 596.57,664.89C595.298,664.941 594.039,665.153 592.82,665.52C591.16,665.998 589.618,666.815 588.29,667.92C586.669,669.314 585.387,671.058 584.54,673.02C583.402,675.774 582.873,678.742 582.99,681.72L582.99,724.16L562.9,724.16L562.9,651L581.86,651Z" style="fill:white;fill-rule:nonzero;"/>
    </g>
    <g transform="matrix(1.41634,0,0,1.41634,769.024,-0.102579)">
        <path d="M581.86,651L581.86,660.9L582.14,660.9C584.611,657.285 587.878,654.284 591.69,652.13C595.617,650.006 600.027,648.935 604.49,649.02C608.857,648.967 613.182,649.886 617.15,651.71C620.97,653.503 623.87,656.663 625.85,661.19C628.205,657.802 631.21,654.916 634.69,652.7C638.633,650.178 643.241,648.89 647.92,649C651.551,648.969 655.17,649.443 658.67,650.41C661.803,651.266 664.704,652.815 667.16,654.94C669.624,657.173 671.517,659.965 672.68,663.08C674.096,666.95 674.774,671.051 674.68,675.17L674.68,724.12L654.57,724.12L654.57,682.67C654.57,680.217 654.477,677.907 654.29,675.74C654.153,673.768 653.623,671.844 652.73,670.08C651.874,668.472 650.572,667.146 648.98,666.26C646.898,665.223 644.584,664.738 642.26,664.85C639.866,664.744 637.49,665.308 635.4,666.48C633.695,667.526 632.284,668.988 631.3,670.73C630.271,672.569 629.593,674.583 629.3,676.67C628.971,678.895 628.808,681.141 628.81,683.39L628.81,724.13L608.74,724.13L608.74,683.13C608.74,680.963 608.693,678.82 608.6,676.7C608.53,674.69 608.124,672.706 607.4,670.83C606.706,669.055 605.466,667.545 603.86,666.52C602.207,665.433 599.777,664.89 596.57,664.89C595.298,664.941 594.039,665.153 592.82,665.52C591.16,665.998 589.618,666.815 588.29,667.92C586.669,669.314 585.387,671.058 584.54,673.02C583.402,675.774 582.873,678.742 582.99,681.72L582.99,724.16L562.9,724.16L562.9,651L581.86,651Z" style="fill:white;fill-rule:nonzero;"/>
    </g>
    <g transform="matrix(1.41634,0,0,1.41634,769.024,-0.102579)">
        <path d="M707.2,651L707.2,660.9L707.48,660.9C709.951,657.285 713.218,654.284 717.03,652.13C720.957,650.006 725.367,648.935 729.83,649.02C734.197,648.967 738.522,649.886 742.49,651.71C746.31,653.503 749.21,656.663 751.19,661.19C753.545,657.802 756.55,654.916 760.03,652.7C763.973,650.178 768.581,648.89 773.26,649C776.889,648.973 780.503,649.451 784,650.42C787.133,651.276 790.034,652.825 792.49,654.95C794.954,657.183 796.847,659.975 798.01,663.09C799.426,666.96 800.104,671.061 800.01,675.18L800.01,724.13L779.91,724.13L779.91,682.67C779.91,680.217 779.817,677.907 779.63,675.74C779.493,673.768 778.963,671.844 778.07,670.08C777.214,668.472 775.912,667.146 774.32,666.26C772.238,665.223 769.924,664.738 767.6,664.85C765.206,664.744 762.83,665.308 760.74,666.48C759.035,667.526 757.624,668.988 756.64,670.73C755.611,672.569 754.933,674.583 754.64,676.67C754.311,678.895 754.148,681.141 754.15,683.39L754.15,724.13L734.08,724.13L734.08,683.13C734.08,680.963 734.033,678.82 733.94,676.7C733.87,674.69 733.464,672.706 732.74,670.83C732.046,669.055 730.806,667.545 729.2,666.52C727.547,665.433 725.117,664.89 721.91,664.89C720.638,664.941 719.379,665.153 718.16,665.52C716.5,665.998 714.958,666.815 713.63,667.92C712.009,669.314 710.727,671.058 709.88,673.02C708.742,675.774 708.213,678.742 708.33,681.72L708.33,724.16L688.24,724.16L688.24,651L707.2,651Z" style="fill:white;fill-rule:nonzero;"/>
    </g>
    <g transform="matrix(1.41634,0,0,1.41634,-735.214,-0.102579)">
        <path d="M707.2,651L707.2,660.9L707.48,660.9C709.951,657.285 713.218,654.284 717.03,652.13C720.957,650.006 725.367,648.935 729.83,649.02C734.197,648.967 738.522,649.886 742.49,651.71C746.31,653.503 749.21,656.663 751.19,661.19C753.545,657.802 756.55,654.916 760.03,652.7C763.973,650.178 768.581,648.89 773.26,649C776.889,648.973 780.503,649.451 784,650.42C787.133,651.276 790.034,652.825 792.49,654.95C794.954,657.183 796.847,659.975 798.01,663.09C799.426,666.96 800.104,671.061 800.01,675.18L800.01,724.13L779.91,724.13L779.91,682.67C779.91,680.217 779.817,677.907 779.63,675.74C779.493,673.768 778.963,671.844 778.07,670.08C777.214,668.472 775.912,667.146 774.32,666.26C772.238,665.223 769.924,664.738 767.6,664.85C765.206,664.744 762.83,665.308 760.74,666.48C759.035,667.526 757.624,668.988 756.64,670.73C755.611,672.569 754.933,674.583 754.64,676.67C754.311,678.895 754.148,681.141 754.15,683.39L754.15,724.13L734.08,724.13L734.08,683.13C734.08,680.963 734.033,678.82 733.94,676.7C733.87,674.69 733.464,672.706 732.74,670.83C732.046,669.055 730.806,667.545 729.2,666.52C727.547,665.433 725.117,664.89 721.91,664.89C720.638,664.941 719.379,665.153 718.16,665.52C716.5,665.998 714.958,666.815 713.63,667.92C712.009,669.314 710.727,671.058 709.88,673.02C708.742,675.774 708.213,678.742 708.33,681.72L708.33,724.16L688.24,724.16L688.24,651L707.2,651Z" style="fill:white;fill-rule:nonzero;"/>
    </g>
</svg>

<svg id="Layer_1" data-name="Layer 1" xmlns="http://www.w3.org/2000/svg" viewBox="0 0 800 725.96"><defs><style>.cls-1{fill:#ed2224;}.cls-2{fill:#fff;}</style></defs><title>mm_white</title><polygon class="cls-1" points="593.72 381.11 789.6 489.47 681.68 489.47 555.63 418.74 240.04 418.74 113.99 489.47 6.07 489.47 201.95 381.11 593.72 381.11"/><polygon class="cls-1" points="221.96 292.91 96.47 366.37 6.01 366.37 201.9 256.41 593.72 256.41 789.6 366.37 699.14 366.37 573.65 292.91 221.96 292.91"/><polygon class="cls-1" points="593.72 155.01 789.6 256.41 719.54 256.41 577.22 182.96 218.39 182.96 76.07 256.41 6.01 256.41 201.9 155.01 593.72 155.01"/><polygon class="cls-1" points="201.9 70.06 6.01 156.6 67.68 156.6 218.39 89.78 577.22 89.78 727.93 156.6 789.6 156.6 593.72 70.06 201.9 70.06"/><polygon class="cls-1" points="201.9 0 6.01 73.17 52.72 73.17 218.39 11.33 577.22 11.33 742.9 73.17 789.6 73.17 593.72 0 201.9 0"/><path class="cls-2" d="M31.27,623.12l23.63,69.46h.28l22.35-69.46h31.27v101H88V652.54h-.28L63,724.12H45.84L21.08,653.25H20.8v70.87H0v-101Z"/><path class="cls-2" d="M142.88,651v9.9h.28a28.59,28.59,0,0,1,9.55-8.77,25.87,25.87,0,0,1,12.8-3.11,29.46,29.46,0,0,1,12.66,2.69q5.73,2.69,8.7,9.48a31.16,31.16,0,0,1,8.84-8.49A23.53,23.53,0,0,1,209,649a39.13,39.13,0,0,1,10.75,1.41,21.72,21.72,0,0,1,8.49,4.53,20.79,20.79,0,0,1,5.52,8.14,33,33,0,0,1,2,12.09v48.95H215.6V682.67q0-3.68-.28-6.93a14.75,14.75,0,0,0-1.56-5.66,9.44,9.44,0,0,0-3.75-3.82,13.59,13.59,0,0,0-6.72-1.41,12.85,12.85,0,0,0-6.86,1.63,11.76,11.76,0,0,0-4.1,4.25,17,17,0,0,0-2,5.94,45.27,45.27,0,0,0-.5,6.72v40.74H169.76v-41q0-3.25-.14-6.43a18.13,18.13,0,0,0-1.2-5.87,9,9,0,0,0-3.54-4.31q-2.48-1.63-7.28-1.63a15.12,15.12,0,0,0-3.75.63,12.47,12.47,0,0,0-4.53,2.4,14,14,0,0,0-3.75,5.1,20.65,20.65,0,0,0-1.56,8.7v42.44H123.93V651Z"/><path class="cls-2" d="M298.22,724.12V713.94h-.42a22.6,22.6,0,0,1-9.9,9.2A29.23,29.23,0,0,1,275.44,726a35.17,35.17,0,0,1-13.23-2.12,19.06,19.06,0,0,1-8.13-6,23.51,23.51,0,0,1-4.17-9.48A58.92,58.92,0,0,1,248.7,696V651h20.09v41.31q0,9.05,2.83,13.51t10,4.46q8.2,0,11.88-4.88t3.68-16.06V651h20.09v73.14Z"/><path class="cls-2" d="M346.67,705.94a11.74,11.74,0,0,0,3.47,3.82A14.88,14.88,0,0,0,355,712a22.92,22.92,0,0,0,5.73.71,21.36,21.36,0,0,0,4.46-.5,15.17,15.17,0,0,0,4.24-1.55,9.68,9.68,0,0,0,3.18-2.83,7.42,7.42,0,0,0,1.27-4.46q0-4.52-6-6.79A120.92,120.92,0,0,0,351.12,692q-4.39-1-8.56-2.34a29.12,29.12,0,0,1-7.43-3.53,17.17,17.17,0,0,1-5.24-5.52,15.6,15.6,0,0,1-2-8.13q0-7.07,2.76-11.6a20.34,20.34,0,0,1,7.29-7.14,32,32,0,0,1,10.18-3.68,62.87,62.87,0,0,1,11.6-1.06,57.94,57.94,0,0,1,11.53,1.13,30.53,30.53,0,0,1,10,3.82,22.9,22.9,0,0,1,7.29,7.14A24,24,0,0,1,392,672.35h-19.1q-.42-5.8-4.39-7.85a20.08,20.08,0,0,0-9.34-2.05,34.84,34.84,0,0,0-3.68.21,12.37,12.37,0,0,0-3.61.92,7.46,7.46,0,0,0-2.76,2.05,5.42,5.42,0,0,0-1.13,3.61,5.5,5.5,0,0,0,2,4.39,15.28,15.28,0,0,0,5.16,2.76,64.59,64.59,0,0,0,7.28,1.91q4.1.85,8.35,1.84a85.47,85.47,0,0,1,8.56,2.41,28.26,28.26,0,0,1,7.43,3.75,18.17,18.17,0,0,1,5.23,5.8,17,17,0,0,1,2,8.56,22.22,22.22,0,0,1-10.47,19.95,31,31,0,0,1-10.68,4.17A62.22,62.22,0,0,1,360.6,726a60.69,60.69,0,0,1-12.45-1.27,32.85,32.85,0,0,1-10.82-4.25,24.26,24.26,0,0,1-7.78-7.85,24.57,24.57,0,0,1-3.32-12.24h19.1A11,11,0,0,0,346.67,705.94Z"/><path class="cls-2" d="M424.4,706.58q4.53,4.38,13,4.38a17.9,17.9,0,0,0,10.47-3q4.38-3,5.37-6.44h17.68q-4.24,13.16-13,18.82T436.71,726a41.78,41.78,0,0,1-15.56-2.76,32.31,32.31,0,0,1-11.74-7.85A35.24,35.24,0,0,1,402,703.19a44.5,44.5,0,0,1-2.62-15.56,42.63,42.63,0,0,1,2.69-15.28A35.36,35.36,0,0,1,421.5,652a37.85,37.85,0,0,1,15.21-3A34.76,34.76,0,0,1,453,652.61a32.47,32.47,0,0,1,11.39,9.69,39.82,39.82,0,0,1,6.44,13.87,51.7,51.7,0,0,1,1.42,16.27H419.45Q419.88,702.19,424.4,706.58Zm22.71-38.48q-3.61-4-11-4a17.48,17.48,0,0,0-8,1.63,15.18,15.18,0,0,0-5.09,4,14.78,14.78,0,0,0-2.69,5.09,23,23,0,0,0-.92,4.81h32.68Q450.72,672.07,447.11,668.1Z"/><path class="cls-2" d="M530.79,724.12V713.94h-.43a22.59,22.59,0,0,1-9.9,9.2A29.23,29.23,0,0,1,508,726a35.18,35.18,0,0,1-13.23-2.12,19,19,0,0,1-8.13-6,23.49,23.49,0,0,1-4.17-9.48,58.92,58.92,0,0,1-1.2-12.38V651h20.09v41.31q0,9.05,2.83,13.51t10,4.46q8.21,0,11.88-4.88t3.68-16.06V651h20.09v73.14Z"/><path class="cls-2" d="M581.86,651v9.9h.28a28.63,28.63,0,0,1,9.55-8.77,25.87,25.87,0,0,1,12.8-3.11,29.47,29.47,0,0,1,12.66,2.69q5.73,2.69,8.7,9.48a31.13,31.13,0,0,1,8.84-8.49A23.53,23.53,0,0,1,647.92,649a39.11,39.11,0,0,1,10.75,1.41,21.73,21.73,0,0,1,8.49,4.53,20.81,20.81,0,0,1,5.52,8.14,33,33,0,0,1,2,12.09v48.95H654.57V682.67q0-3.68-.28-6.93a14.8,14.8,0,0,0-1.56-5.66,9.46,9.46,0,0,0-3.75-3.82,13.6,13.6,0,0,0-6.72-1.41,12.86,12.86,0,0,0-6.86,1.63,11.78,11.78,0,0,0-4.1,4.25,17,17,0,0,0-2,5.94,45.63,45.63,0,0,0-.49,6.72v40.74H608.74v-41q0-3.25-.14-6.43a18.06,18.06,0,0,0-1.2-5.87,9,9,0,0,0-3.54-4.31q-2.48-1.63-7.29-1.63a15.13,15.13,0,0,0-3.75.63,12.49,12.49,0,0,0-4.53,2.4,14.09,14.09,0,0,0-3.75,5.1,20.65,20.65,0,0,0-1.55,8.7v42.44H562.9V651Z"/><path class="cls-2" d="M707.2,651v9.9h.28a28.63,28.63,0,0,1,9.55-8.77,25.87,25.87,0,0,1,12.8-3.11,29.47,29.47,0,0,1,12.66,2.69q5.73,2.69,8.7,9.48a31.13,31.13,0,0,1,8.84-8.49A23.53,23.53,0,0,1,773.26,649,39.11,39.11,0,0,1,784,650.42a21.73,21.73,0,0,1,8.49,4.53,20.81,20.81,0,0,1,5.52,8.14,33,33,0,0,1,2,12.09v48.95H779.91V682.67q0-3.68-.28-6.93a14.8,14.8,0,0,0-1.56-5.66,9.46,9.46,0,0,0-3.75-3.82,13.6,13.6,0,0,0-6.72-1.41,12.86,12.86,0,0,0-6.86,1.63,11.78,11.78,0,0,0-4.1,4.25,17,17,0,0,0-2,5.94,45.63,45.63,0,0,0-.49,6.72v40.74H734.08v-41q0-3.25-.14-6.43a18.06,18.06,0,0,0-1.2-5.87,9,9,0,0,0-3.54-4.31q-2.48-1.63-7.29-1.63a15.13,15.13,0,0,0-3.75.63,12.49,12.49,0,0,0-4.53,2.4,14.09,14.09,0,0,0-3.75,5.1,20.65,20.65,0,0,0-1.55,8.7v42.44H688.24V651Z"/></svg>
